.local/share/icons/Gruvbox-Plus-Dark/panel/22/pcloud-sync.svg

<svg xmlns="http://www.w3.org/2000/svg" width="22" height="22" version="1.1">
 <defs>
  <style id="current-color-scheme" type="text/css">
   .ColorScheme-Text { color:#ebdbb2; } .ColorScheme-Highlight { color:#458588; }
  </style>
 </defs>
 <path style="fill:currentColor" class="ColorScheme-Text" d="M 11.5,4.0002372 A 6.5,6.5 0 0 0 5.4902344,8.0314872 5,5 0 0 0 1,13.000237 a 5,5 0 0 0 5,5 h 6.423828 A 5,5 0 0 1 12,16.000237 5,5 0 0 1 12.113281,14.953362 4.5,4.5 0 0 1 11.5,15.000237 4.5,4.5 0 0 1 7,10.500237 4.5,4.5 0 0 1 11.5,6.0002372 4.5,4.5 0 0 1 16,10.500237 4.5,4.5 0 0 1 15.951172,11.117425 5,5 0 0 1 17,11.000237 5,5 0 0 1 19.490234,11.670159 3,3 0 0 0 20,10.000237 3,3 0 0 0 17,7.0002372 a 3,3 0 0 0 -0.02344,0 6.5,6.5 0 0 0 -5.476562,-3 z m 0,3 A 3.5,3.5 0 0 0 8,10.500237 a 3.5,3.5 0 0 0 3.5,3.5 3.5,3.5 0 0 0 0.990234,-0.144531 5,5 0 0 1 2.365235,-2.365235 A 3.5,3.5 0 0 0 15,10.500237 3.5,3.5 0 0 0 11.5,7.0002372 Z m -1.5,1 h 1 1.5 A 1.5,1.5 0 0 1 14,9.5002371 1.5,1.5 0 0 1 12.5,11.000237 H 11 v 2 h -1 v -2 z m 1,0.9999999 v 0.9999999 h 1.5 a 0.5,0.5 0 0 0 0.5,-0.4999999 0.5,0.5 0 0 0 -0.5,-0.5 z"/>
 <path style="fill:currentColor" class="ColorScheme-Text" d="m 20.464742,13.999335 c -1.1045,-1.9131 -3.551,-2.5687 -5.4641,-1.4641 -1.9132,1.1046 -2.5686,3.5509 -1.4641,5.4641 1.1045,1.9131 3.551,2.5687 5.4641,1.4641 1.9132,-1.1046 2.5686,-3.5509 1.4641,-5.4641 z m -0.86601,0.5 a 3,3 0 0 1 -1.0981,4.0981 l -0.49998,-0.8661 a 2,2 0 0 0 0.73208,-2.7321 l 0.86598,-0.4999 z m -4.0981,-1.0981 0.49998,0.8661 a 2,2 0 0 0 -0.73208,2.7321 l -0.86598,0.4999 a 3,3 0 0 1 1.0981,-4.0981 z"/>
</svg>

<svg width="22" height="22" version="1.1" xmlns="http://www.w3.org/2000/svg">
  <defs>
    <style id="current-color-scheme" type="text/css">.ColorScheme-Text { color:#ebdbb2; } .ColorScheme-Highlight { color:#458588; } .ColorScheme-NeutralText { color:#fe8019; } .ColorScheme-PositiveText { color:#689d6a; } .ColorScheme-NegativeText { color:#fb4934; }</style>
  </defs>
  <path class="ColorScheme-Text" d="m11.5 4a6.5 6.5 0 0 0-6.01 4.031 5 5 0 0 0-4.49 4.969 5 5 0 0 0 5 5h6.424a5 5 0 0 1-0.4238-2 5 5 0 0 1 0.1133-1.047 4.5 4.5 0 0 1-0.6133 0.04688 4.5 4.5 0 0 1-4.5-4.5 4.5 4.5 0 0 1 4.5-4.5 4.5 4.5 0 0 1 4.5 4.5 4.5 4.5 0 0 1-0.04883 0.6172 5 5 0 0 1 1.049-0.1172 5 5 0 0 1 2.49 0.6699 3 3 0 0 0 0.5098-1.67 3 3 0 0 0-3-3 3 3 0 0 0-0.02344 0 6.5 6.5 0 0 0-5.477-3zm0 3a3.5 3.5 0 0 0-3.5 3.5 3.5 3.5 0 0 0 3.5 3.5 3.5 3.5 0 0 0 0.9902-0.1445 5 5 0 0 1 2.365-2.365 3.5 3.5 0 0 0 0.1445-0.9902 3.5 3.5 0 0 0-3.5-3.5zm-1.5 1h2.5a1.5 1.5 0 0 1 1.5 1.5 1.5 1.5 0 0 1-1.5 1.5h-1.5v2h-1v-2zm1 1v1h1.5a0.5 0.5 0 0 0 0.5-0.5 0.5 0.5 0 0 0-0.5-0.5z" fill="currentColor"/>
  <path class="ColorScheme-Text" d="m20.46 14c-1.104-1.913-3.551-2.569-5.464-1.464-1.913 1.105-2.569 3.551-1.464 5.464 1.104 1.913 3.551 2.569 5.464 1.464 1.913-1.105 2.569-3.551 1.464-5.464zm-0.866 0.5a3 3 0 0 1-1.098 4.098l-0.5-0.8661a2 2 0 0 0 0.7321-2.732l0.866-0.4999zm-4.098-1.098 0.5 0.8661a2 2 0 0 0-0.7321 2.732l-0.866 0.4999a3 3 0 0 1 1.098-4.098z" fill="currentColor"/>
</svg>
